src/assets/img/icon_1.svg

<svg width="64" height="52" viewBox="0 0 64 52" fill="none" xmlns="http://www.w3.org/2000/svg">
<path d="M38.8733 40.496L25.8817 47.8345L9.45513 19.9982L11.9235 18.6039C14.5605 17.1144 15.6436 14.003 14.6165 11.3012C14.4176 10.778 14.5748 10.1578 15.0622 9.88249L19.3715 7.44831M38.8733 40.496L32.8728 30.3275M38.8733 40.496L19.3715 7.44831M32.8728 30.3275L43.396 24.3833L40.4668 22.6484L41.0708 20.443L36.7674 19.3149L37.3954 14.2148L26.8722 20.159M32.8728 30.3275L26.8722 20.159M26.8722 20.159L19.3715 7.44831M61.0299 8.86818L48.6572 20.9733L45.3688 20.0392V17.756H40.9136L40.1711 12.6707L52.2635 0.839844M0.015625 51.1219H63.8351" stroke="white"/>
</svg>

<svg xmlns="http://www.w3.org/2000/svg" fill="none" viewBox="0 0 64 52"><path stroke="#fff" d="M38.873 40.496l-12.991 7.338L9.455 19.998l2.469-1.394c2.636-1.49 3.72-4.601 2.693-7.303-.2-.523-.042-1.143.445-1.419l4.31-2.434m19.501 33.048l-6-10.169m6 10.169L19.372 7.448m13.5 22.88l10.524-5.945-2.93-1.735.605-2.205-4.304-1.128.628-5.1-10.523 5.944m6 10.169l-6-10.169m0 0l-7.5-12.71m41.658 1.42L48.657 20.972l-3.288-.934v-2.283h-4.455l-.743-5.085L52.264.84M.016 51.122h63.82"/></svg>
